X:264
T: Die Brombeeren (29a),
N: T0153
O: Luxemburg
S: Singendes Volk, Esch-Alzette 1937 posth.]
N: Luxemburg, hhh Lorang Aschenberger, 1928
R: Liebeslieder]
M: 2/4
L: 1/16
K: G
D2 | G2GGFFFF | E2EED2
D2 | G2G2F2A2 | G4z2GA | B2B2B2d2 | d2cBA2z2 |
D2A2c2ee | e2dcB2
de | d2d2c2F2 | G4z2

@@@ Tune index: 8318
